X:361
T:Polka du Couserans 2
R:polka
C:trad.
A:Arige
O:France
Z:S. Piron
Z:S. Piron
M:2/4
L:1/16
Q:1/4=110
K:G
DEFG A2A2|ABAG F4|DEF2 DEFG|F2E2 E4|EFEF G2G2|GAGF E4|^CDE2 CDEF|E2D2D4:|
|:ABAG F2F2|A2A2G4|GAGF E2E2|G2G2 F4|ABAG F2F2|A2A2G4|GAGF EGFE|D2F2D4:||
